<?xml version="1.0" encoding="UTF-8"?>
<map version="1.10" tiledversion="1.12.2" orientation="orthogonal" renderorder="right-down" width="30" height="20" tilewidth="16" tileheight="16" infinite="0" nextlayerid="2" nextobjectid="1">
 <properties>
  <property name="has_collision" type="bool" value="true"/>
 </properties>
 <tileset firstgid="1" source="world.tsx"/>
 <layer id="1" name="Tile Layer 1" width="30" height="20">
  <properties>
   <property name="has_colliison" type="bool" value="true"/>
   <property name="texture_name" value="Textures/tilemap.png"/>
  </properties>
  <data encoding="csv">
0,289,289,289,289,0,0,0,0,0,0,0,0,0,0,0,0,0,0,0,0,0,0,0,0,0,0,0,0,0,
0,0,0,0,289,289,0,0,0,0,0,0,0,0,0,0,0,0,0,0,0,0,0,0,0,0,0,0,0,0,
0,0,0,0,0,289,289,0,0,0,17,18,0,0,0,0,0,0,0,0,0,0,0,0,0,0,0,0,0,0,
0,0,0,289,289,0,289,0,0,377,42,43,0,0,0,0,0,0,0,0,0,0,0,0,0,0,0,0,0,0,
0,0,0,0,289,289,289,0,0,402,208,209,210,17,18,0,0,0,0,0,0,0,0,0,0,0,0,0,0,0,
0,0,0,0,0,0,0,0,0,427,233,186,235,42,43,0,377,0,0,0,0,0,0,0,0,0,0,0,0,0,
0,0,0,17,18,0,0,0,0,452,208,209,210,208,209,210,402,0,0,0,0,0,0,0,212,213,214,0,0,0,
0,0,0,42,43,0,0,0,0,427,233,234,235,208,186,210,427,0,0,0,0,212,213,214,237,238,239,0,0,0,
6,7,8,9,10,11,12,6,7,452,9,10,11,233,234,235,452,9,10,11,12,237,238,239,9,10,11,12,0,0,
31,32,33,34,35,36,37,31,32,33,34,35,36,37,31,32,33,34,35,36,37,31,32,33,34,35,36,37,0,0,
338,338,338,173,173,173,173,338,338,338,338,278,279,280,278,279,280,278,278,279,280,278,279,280,278,279,280,278,279,280,
338,173,173,173,173,173,173,173,338,338,338,303,304,305,303,304,305,303,303,304,305,303,304,305,303,304,305,303,304,305,
173,173,173,173,173,173,173,173,173,173,338,328,329,330,328,329,330,328,328,329,330,328,329,330,328,329,330,328,329,330,
173,173,173,173,173,173,173,173,173,173,173,343,343,343,343,343,343,343,343,343,343,343,343,343,343,343,343,343,344,345,
147,148,149,147,148,147,148,149,147,148,149,343,343,318,319,320,343,343,318,319,320,343,343,318,319,320,343,368,369,370,
172,173,174,172,173,172,173,174,172,173,174,343,342,343,344,345,346,342,343,344,345,346,342,343,344,345,346,393,394,395,
197,198,199,197,198,197,198,199,197,198,199,343,367,368,369,370,371,367,368,369,370,371,367,368,369,370,371,343,344,345,
147,148,149,147,148,149,147,148,147,148,149,343,392,393,394,395,396,392,393,394,395,396,392,393,394,395,396,368,369,370,
172,173,174,172,173,174,172,173,172,173,174,343,343,418,419,420,343,343,418,419,420,343,343,418,419,420,343,393,394,395,
197,198,199,197,198,199,197,198,197,198,199,343,343,343,343,343,343,343,343,343,343,343,343,343,343,343,343,343,343,343
</data>
 </layer>
</map>
